style/brug.svg

<svg xmlns="http://www.w3.org/2000/svg" viewBox="0 0 135 103.67"><path d="M16.67 127.56a47.11 47.11 0 0 1 94.23 0m-80.38-84.89a47 47 0 0 1 66.52 0" transform="translate(4.15 -23.89)" stroke="#000" stroke-miterlimit="10" stroke-width="10" fill="none"/><path stroke="#000" stroke-miterlimit="10" stroke-width="10" d="M34.19 17.56l-32.37 12.62m3.86-2.32l.4 73.56m123.23-73.21l.4 73.56m-90.51-54.66h-18.39m.39 51.45h-18.38m93.36-63.12h-17.58m54.11 63.02l-17.58.01m-2.32-49.03h-11.62m31.79-17.59l-31.78-14.07" fill="none"/></svg>

<svg xmlns="http://www.w3.org/2000/svg" viewBox="0 0 135 103.67"><title>brug</title><path d="M16.67 127.56a47.11 47.11 0 0 1 94.23 0M30.52 42.67a47 47 0 0 1 66.52 0" transform="translate(4.15 -23.89)" stroke="#181716" stroke-miterlimit="10" stroke-width="10" fill="none"/><path stroke="#181716" stroke-miterlimit="10" stroke-width="10" fill="none" d="M34.19 17.56l-32.37 12.62M5.68 27.86l.4 73.56M129.31 28.21l.4 73.56M39.2 47.11h-18.39M21.2 98.56h-18.38M96.18 35.44h-17.58M132.71 98.46l-17.58.01M112.81 49.44h-11.62M132.98 31.85l-31.78-14.07"/></svg>
